X:175
T:Thady Casey's                                                                                     
M:4/4                                                                                               
L:1/8                                                                                               
Q:200                                                                                               
K:Em                                                                                                
|B2BA Bded|BdAc BE ~E2|BAGA (3Bcd ef|1gfed Bded:|2gfed Bdef||                                       
|gfge dB ~B2|dBeB (3Bcd ef|g2 ga bgaf|1gfed (3Bcd ef|2gfed (3Bcd ed|>|
